X: 17
T: Butterfly, The
C: Tommy Potts
Z: Summer Lawton
S: https://thesession.org/tunes/10#setting50404
R: slip jig
M: 9/8
L: 1/8
K: Emin
|:B2E G2E F3|B2E G2E FED|B2E G2E F3|B2d d2B AFD:|
|:B2c e2f g3|B2c g2e dBA|B2c e2f g2a|b2a g2e dBA:|
|:B2B B2A G2A|B2B BAB dBA|B2B B2A G2A|B2d g2e dBA:|

